coreui/free/cil-diamond.svg

<svg viewBox="0 0 512 512" xmlns="http://www.w3.org/2000/svg"><path d="M408.563 48H103.43L15.99 179.156v24.786L199.41 480h113.15l183.421-276.058v-24.786Zm-17.13 32l63.4 95.11H347.72l-29.94-95.12Zm-163.7 0h56.524l29.93 95.11H197.79Zm-107.18 0h73.629l-29.94 95.11H57.13Zm96.016 368L56.51 207.111H163.3L219.79 448Zm36.1 0l-56.5-240.889h119.62L259.289 448Zm42.73 0h-3.24l56.5-240.889h106.79Z"/></svg>

<svg xmlns="http://www.w3.org/2000/svg" viewBox="0 0 512 512">
  <path fill="var(--ci-primary-color, currentColor)" d="M408.563,48H103.438L16,179.156v24.786L199.421,480H312.579L496,203.942V179.156ZM391.438,80l63.407,95.111H347.739L317.808,80Zm-163.7,0h56.524l29.93,95.111H197.808ZM120.563,80h73.629l-29.931,95.111H57.155Zm96.016,368L56.525,207.111H163.318L219.813,448Zm36.1,0L196.187,207.111H315.813L259.318,448Zm42.739,0h-3.234l56.5-240.889H455.475Z" class="ci-primary"/>
</svg>
